X:1
T:Title
%%score { ( 1 4 ) | ( 2 3 ) }
L:1/8
M:6/4
K:Eb
V:1 treble nm="Grand Piano"
V:4 treble 
V:2 bass 
V:3 bass 
V:1
 z6 z4[Q:1/4=100] E2 | G3 G G2 F2 E2 G2 | [GB]3 [_G=A] [_Ac]2 [=GB]4 [EG][GB] | %3
 [Ge]3 [_Gd] [=Ge]2 [GB]2 G2 E2 | [DF]6- [DF]4 [FA]2 | G3 G G2 F2 E2 G2 | %6
 [GB]3 [_G=A] [_Ac]2 [=GB]4 EF | G3 G [Ec]2 [EB]2 [A,DF]2 [B,DG]2 |[M:5/4] [G,E]2- [G,E]2- [G,E]6 | %9
[M:1/4] [G,B,E][G,B,E] |[M:6/4] [CEA]3 [CEA] [CEA]2 [CEA]2 D2 C2 | E3 E E2 .G4 GG | %12
 [DB]3 [DF] [DF]2 F2 B2 =A2 | B12 | [Ge]3 [Ge] [Ge]2 .[Bd]4 [Ac]2 | [GB]3 [GB] E2 .G4 G[DF] | %16
 E3 E [Ec]2 .[EB]3 [DF] [DG]2 |[M:5/4] E2- E2- E6 |] %18
V:2
 z6 z4 [E,G,]2 | [E,B,E]3 [E,B,E] [E,B,E]2 [E,A,E]2 [E,G,]2 [E,B,E]2 | %2
 [E,E]3 [E,E] [E,E]2 [E,E]4 [E,B,][E,B,] | [E,B,]3 [E,B,] [E,B,]2 [E,E]2 [E,B,E]2 [E,G,]2 | %4
 [B,,B,]6- [B,,B,]4 [D,B,]2 | [E,B,E]3 [E,B,E] [E,B,E]2 [E,A,E]2 [E,G,]2 [E,B,E]2 | %6
 [E,E]3 [E,E] [E,E]2 [E,E]4 [E,G,][E,A,E] | [E,B,E]3 [E,B,E] [A,,A,]2 [B,,G,]2 B,,2 B,,2 | %8
[M:5/4] E,2- E,2- E,6 |[M:1/4] E,E, |[M:6/4] A,,3 A,, A,,2 A,,2 B,2 A,2 | [G,B,]6 z6 | %12
 [B,,F,]3 [B,,B,] [B,,B,]2 [F,=A,E]2 F,2 [F,E]2 | B,,2- [B,,-F,]2 [B,,-G,]2 [B,,A,]4 [E,G,E]2 | %14
 [E,B,]3 [E,B,] [E,B,]2 .[G,E]4 [A,E]2 | [E,E]3 [E,E] [E,G,]2 .[E,B,E]4 [E,B,E][B,,A,] | %16
 [C,G,]3 [C,G,] [A,,A,]2 .[B,,G,]3 [B,,A,] [B,,B,]2 |[M:5/4] [E,G,]2- [E,G,]2- [E,G,]6 |] %18
V:3
 x12 | x12 | x12 | x12 | x12 | x12 | x12 | x12 |[M:5/4] x10 |[M:1/4] x2 |[M:6/4] x12 | %11
 E,3 E, E,2 .[E,B,E]4 [E,G,E][E,G,E] | x12 | .F,6 z6 | x12 | x12 | x12 |[M:5/4] x10 |] %18
V:4
 x12 | x12 | x12 | x12 | x12 | x12 | x12 | x12 |[M:5/4] x10 |[M:1/4] x2 |[M:6/4] x12 | x12 | x12 | %13
 D2 D2 E2 F4 B2 | x12 | x12 | x12 |[M:5/4] x10 |] %18

